images/3235132.svg

<?xml version="1.0" encoding="UTF-8"?>
<svg xmlns="http://www.w3.org/2000/svg" xmlns:xlink="http://www.w3.org/1999/xlink" width="300pt" height="300pt" viewBox="0 0 300 300" version="1.1">
<defs>
<g>
<symbol overflow="visible" id="glyph0-0">
<path style="stroke:none;" d="M 0.546875 1.9375 L 0.546875 -7.75 L 6.046875 -7.75 L 6.046875 1.9375 Z M 1.171875 1.328125 L 5.4375 1.328125 L 5.4375 -7.140625 L 1.171875 -7.140625 Z M 1.171875 1.328125 "/>
</symbol>
<symbol overflow="visible" id="glyph0-1">
<path style="stroke:none;" d="M 4.328125 -7.28125 C 3.546875 -7.28125 2.921875 -6.984375 2.453125 -6.390625 C 1.992188 -5.804688 1.765625 -5.007812 1.765625 -4 C 1.765625 -2.988281 1.992188 -2.1875 2.453125 -1.59375 C 2.921875 -1.007812 3.546875 -0.71875 4.328125 -0.71875 C 5.117188 -0.71875 5.742188 -1.007812 6.203125 -1.59375 C 6.660156 -2.1875 6.890625 -2.988281 6.890625 -4 C 6.890625 -5.007812 6.660156 -5.804688 6.203125 -6.390625 C 5.742188 -6.984375 5.117188 -7.28125 4.328125 -7.28125 Z M 4.328125 -8.171875 C 5.453125 -8.171875 6.351562 -7.789062 7.03125 -7.03125 C 7.707031 -6.28125 8.046875 -5.269531 8.046875 -4 C 8.046875 -2.738281 7.707031 -1.726562 7.03125 -0.96875 C 6.351562 -0.21875 5.453125 0.15625 4.328125 0.15625 C 3.203125 0.15625 2.300781 -0.21875 1.625 -0.96875 C 0.957031 -1.71875 0.625 -2.726562 0.625 -4 C 0.625 -5.269531 0.957031 -6.28125 1.625 -7.03125 C 2.300781 -7.789062 3.203125 -8.171875 4.328125 -8.171875 Z M 4.328125 -8.171875 "/>
</symbol>
<symbol overflow="visible" id="glyph0-2">
<path style="stroke:none;" d="M 1.078125 -8.015625 L 2.546875 -8.015625 L 6.09375 -1.3125 L 6.09375 -8.015625 L 7.15625 -8.015625 L 7.15625 0 L 5.6875 0 L 2.125 -6.703125 L 2.125 0 L 1.078125 0 Z M 1.078125 -8.015625 "/>
</symbol>
<symbol overflow="visible" id="glyph0-3">
<path style="stroke:none;" d="M 1.078125 -8.015625 L 2.171875 -8.015625 L 2.171875 -4.734375 L 6.109375 -4.734375 L 6.109375 -8.015625 L 7.1875 -8.015625 L 7.1875 0 L 6.109375 0 L 6.109375 -3.8125 L 2.171875 -3.8125 L 2.171875 0 L 1.078125 0 Z M 1.078125 -8.015625 "/>
</symbol>
</g>
</defs>
<g id="surface55501">
<rect x="0" y="0" width="300" height="300" style="fill:rgb(100%,100%,100%);fill-opacity:1;stroke:none;"/>
<path style="fill:none;stroke-width:1.2;stroke-linecap:butt;stroke-linejoin:miter;stroke:rgb(0%,0%,0%);stroke-opacity:1;stroke-miterlimit:10;" d="M 35.25 163.789062 L 44.15625 174.636719 "/>
<path style="fill:none;stroke-width:1.2;stroke-linecap:butt;stroke-linejoin:miter;stroke:rgb(100%,0%,0%);stroke-opacity:1;stroke-miterlimit:10;" d="M 44.15625 174.636719 L 53.0625 185.484375 "/>
<path style="fill:none;stroke-width:1.2;stroke-linecap:butt;stroke-linejoin:miter;stroke:rgb(100%,0%,0%);stroke-opacity:1;stroke-miterlimit:10;" d="M 53.0625 185.484375 L 66.910156 183.195312 "/>
<path style="fill:none;stroke-width:1.2;stroke-linecap:butt;stroke-linejoin:miter;stroke:rgb(0%,0%,0%);stroke-opacity:1;stroke-miterlimit:10;" d="M 66.910156 183.195312 L 80.761719 180.90625 "/>
<path style=" stroke:none;fill-rule:nonzero;fill:rgb(100%,100%,100%);fill-opacity:1;" d="M 49.0625 178.984375 L 58.0625 178.984375 L 58.0625 191.984375 L 49.0625 191.984375 Z M 49.0625 178.984375 "/>
<g style="fill:rgb(100%,0%,0%);fill-opacity:1;">
  <use xlink:href="#glyph0-1" x="49.0625" y="188.885742"/>
</g>
<path style="fill:none;stroke-width:1.2;stroke-linecap:butt;stroke-linejoin:miter;stroke:rgb(0%,0%,0%);stroke-opacity:1;stroke-miterlimit:10;" d="M 80.761719 180.90625 L 90.640625 154.628906 "/>
<path style="fill:none;stroke-width:1.2;stroke-linecap:butt;stroke-linejoin:miter;stroke:rgb(0%,0%,0%);stroke-opacity:1;stroke-miterlimit:10;" d="M 87.929688 180.605469 L 95.835938 159.582031 "/>
<path style="fill:none;stroke-width:1.2;stroke-linecap:butt;stroke-linejoin:miter;stroke:rgb(0%,0%,0%);stroke-opacity:1;stroke-miterlimit:10;" d="M 98.574219 202.601562 L 80.761719 180.90625 "/>
<path style="fill:none;stroke-width:1.2;stroke-linecap:butt;stroke-linejoin:miter;stroke:rgb(0%,0%,0%);stroke-opacity:1;stroke-miterlimit:10;" d="M 90.640625 154.628906 L 118.339844 150.050781 "/>
<path style="fill:none;stroke-width:1.2;stroke-linecap:butt;stroke-linejoin:miter;stroke:rgb(0%,0%,0%);stroke-opacity:1;stroke-miterlimit:10;" d="M 118.339844 150.050781 L 136.152344 171.746094 "/>
<path style="fill:none;stroke-width:1.2;stroke-linecap:butt;stroke-linejoin:miter;stroke:rgb(0%,0%,0%);stroke-opacity:1;stroke-miterlimit:10;" d="M 115.015625 156.414062 L 129.265625 173.769531 "/>
<path style="fill:none;stroke-width:1.2;stroke-linecap:butt;stroke-linejoin:miter;stroke:rgb(0%,0%,0%);stroke-opacity:1;stroke-miterlimit:10;" d="M 118.339844 150.050781 L 123.277344 136.914062 "/>
<path style="fill:none;stroke-width:1.2;stroke-linecap:butt;stroke-linejoin:miter;stroke:rgb(100%,0%,0%);stroke-opacity:1;stroke-miterlimit:10;" d="M 123.277344 136.914062 L 128.21875 123.777344 "/>
<path style="fill:none;stroke-width:1.2;stroke-linecap:butt;stroke-linejoin:miter;stroke:rgb(0%,0%,0%);stroke-opacity:1;stroke-miterlimit:10;" d="M 136.152344 171.746094 L 126.269531 198.023438 "/>
<path style="fill:none;stroke-width:1.2;stroke-linecap:butt;stroke-linejoin:miter;stroke:rgb(0%,0%,0%);stroke-opacity:1;stroke-miterlimit:10;" d="M 136.152344 171.746094 L 163.847656 167.167969 "/>
<path style="fill:none;stroke-width:1.2;stroke-linecap:butt;stroke-linejoin:miter;stroke:rgb(0%,0%,0%);stroke-opacity:1;stroke-miterlimit:10;" d="M 126.269531 198.023438 L 98.574219 202.601562 "/>
<path style="fill:none;stroke-width:1.2;stroke-linecap:butt;stroke-linejoin:miter;stroke:rgb(0%,0%,0%);stroke-opacity:1;stroke-miterlimit:10;" d="M 122.421875 191.964844 L 100.265625 195.628906 "/>
<path style="fill:none;stroke-width:1.2;stroke-linecap:butt;stroke-linejoin:miter;stroke:rgb(0%,0%,0%);stroke-opacity:1;stroke-miterlimit:10;" d="M 163.847656 167.167969 L 172.753906 178.015625 "/>
<path style="fill:none;stroke-width:1.2;stroke-linecap:butt;stroke-linejoin:miter;stroke:rgb(0%,0%,100%);stroke-opacity:1;stroke-miterlimit:10;" d="M 172.753906 178.015625 L 181.660156 188.863281 "/>
<path style="fill:none;stroke-width:1.2;stroke-linecap:butt;stroke-linejoin:miter;stroke:rgb(0%,0%,100%);stroke-opacity:1;stroke-miterlimit:10;" d="M 181.660156 188.863281 L 195.511719 186.574219 "/>
<path style="fill:none;stroke-width:1.2;stroke-linecap:butt;stroke-linejoin:miter;stroke:rgb(0%,0%,0%);stroke-opacity:1;stroke-miterlimit:10;" d="M 195.511719 186.574219 L 209.359375 184.285156 "/>
<path style=" stroke:none;fill-rule:nonzero;fill:rgb(100%,100%,100%);fill-opacity:1;" d="M 173.660156 182.363281 L 190.660156 182.363281 L 190.660156 195.363281 L 173.660156 195.363281 Z M 173.660156 182.363281 "/>
<g style="fill:rgb(0%,0%,100%);fill-opacity:1;">
  <use xlink:href="#glyph0-2" x="173.660156" y="192.264648"/>
  <use xlink:href="#glyph0-3" x="181.643555" y="192.264648"/>
</g>
<path style="fill:none;stroke-width:1.2;stroke-linecap:butt;stroke-linejoin:miter;stroke:rgb(0%,0%,0%);stroke-opacity:1;stroke-miterlimit:10;" d="M 209.359375 184.285156 L 218.265625 195.132812 "/>
<path style="fill:none;stroke-width:1.2;stroke-linecap:butt;stroke-linejoin:miter;stroke:rgb(0%,0%,100%);stroke-opacity:1;stroke-miterlimit:10;" d="M 218.265625 195.132812 L 227.171875 205.980469 "/>
<path style="fill:none;stroke-width:1.2;stroke-linecap:butt;stroke-linejoin:miter;stroke:rgb(0%,0%,0%);stroke-opacity:1;stroke-miterlimit:10;" d="M 216.246094 182.261719 L 223.371094 190.941406 "/>
<path style="fill:none;stroke-width:1.2;stroke-linecap:butt;stroke-linejoin:miter;stroke:rgb(0%,0%,100%);stroke-opacity:1;stroke-miterlimit:10;" d="M 223.371094 190.941406 L 230.496094 199.617188 "/>
<path style="fill:none;stroke-width:1.2;stroke-linecap:butt;stroke-linejoin:miter;stroke:rgb(0%,0%,0%);stroke-opacity:1;stroke-miterlimit:10;" d="M 219.238281 158.007812 L 209.359375 184.285156 "/>
<path style="fill:none;stroke-width:1.2;stroke-linecap:butt;stroke-linejoin:miter;stroke:rgb(0%,0%,100%);stroke-opacity:1;stroke-miterlimit:10;" d="M 227.171875 205.980469 L 241.019531 203.691406 "/>
<path style="fill:none;stroke-width:1.2;stroke-linecap:butt;stroke-linejoin:miter;stroke:rgb(0%,0%,0%);stroke-opacity:1;stroke-miterlimit:10;" d="M 241.019531 203.691406 L 254.867188 201.402344 "/>
<path style=" stroke:none;fill-rule:nonzero;fill:rgb(100%,100%,100%);fill-opacity:1;" d="M 223.171875 199.480469 L 231.171875 199.480469 L 231.171875 212.480469 L 223.171875 212.480469 Z M 223.171875 199.480469 "/>
<g style="fill:rgb(0%,0%,100%);fill-opacity:1;">
  <use xlink:href="#glyph0-2" x="223.171875" y="209.381836"/>
</g>
<path style="fill:none;stroke-width:1.2;stroke-linecap:butt;stroke-linejoin:miter;stroke:rgb(0%,0%,0%);stroke-opacity:1;stroke-miterlimit:10;" d="M 254.867188 201.402344 L 259.808594 188.261719 "/>
<path style="fill:none;stroke-width:1.2;stroke-linecap:butt;stroke-linejoin:miter;stroke:rgb(0%,0%,100%);stroke-opacity:1;stroke-miterlimit:10;" d="M 259.808594 188.261719 L 264.75 175.125 "/>
<path style="fill:none;stroke-width:1.2;stroke-linecap:butt;stroke-linejoin:miter;stroke:rgb(0%,0%,0%);stroke-opacity:1;stroke-miterlimit:10;" d="M 249.671875 196.449219 L 253.625 185.9375 "/>
<path style="fill:none;stroke-width:1.2;stroke-linecap:butt;stroke-linejoin:miter;stroke:rgb(0%,0%,100%);stroke-opacity:1;stroke-miterlimit:10;" d="M 253.625 185.9375 L 257.578125 175.429688 "/>
<path style="fill:none;stroke-width:1.2;stroke-linecap:butt;stroke-linejoin:miter;stroke:rgb(0%,0%,100%);stroke-opacity:1;stroke-miterlimit:10;" d="M 264.75 175.125 L 255.84375 164.277344 "/>
<path style="fill:none;stroke-width:1.2;stroke-linecap:butt;stroke-linejoin:miter;stroke:rgb(0%,0%,0%);stroke-opacity:1;stroke-miterlimit:10;" d="M 255.84375 164.277344 L 246.9375 153.429688 "/>
<path style=" stroke:none;fill-rule:nonzero;fill:rgb(100%,100%,100%);fill-opacity:1;" d="M 260.75 168.625 L 268.75 168.625 L 268.75 181.625 L 260.75 181.625 Z M 260.75 168.625 "/>
<g style="fill:rgb(0%,0%,100%);fill-opacity:1;">
  <use xlink:href="#glyph0-2" x="260.75" y="178.526367"/>
</g>
<path style="fill:none;stroke-width:1.2;stroke-linecap:butt;stroke-linejoin:miter;stroke:rgb(0%,0%,0%);stroke-opacity:1;stroke-miterlimit:10;" d="M 246.9375 153.429688 L 219.238281 158.007812 "/>
<path style="fill:none;stroke-width:1.2;stroke-linecap:butt;stroke-linejoin:miter;stroke:rgb(0%,0%,0%);stroke-opacity:1;stroke-miterlimit:10;" d="M 245.242188 160.40625 L 223.085938 164.066406 "/>
<path style="fill:none;stroke-width:1.2;stroke-linecap:butt;stroke-linejoin:miter;stroke:rgb(0%,0%,0%);stroke-opacity:1;stroke-miterlimit:10;" d="M 219.238281 158.007812 L 201.425781 136.3125 "/>
<path style="fill:none;stroke-width:1.2;stroke-linecap:butt;stroke-linejoin:miter;stroke:rgb(0%,0%,0%);stroke-opacity:1;stroke-miterlimit:10;" d="M 201.425781 136.3125 L 173.402344 137.972656 "/>
<path style="fill:none;stroke-width:1.2;stroke-linecap:butt;stroke-linejoin:miter;stroke:rgb(0%,0%,0%);stroke-opacity:1;stroke-miterlimit:10;" d="M 198.234375 129.886719 L 175.816406 131.214844 "/>
<path style="fill:none;stroke-width:1.2;stroke-linecap:butt;stroke-linejoin:miter;stroke:rgb(0%,0%,0%);stroke-opacity:1;stroke-miterlimit:10;" d="M 208.507812 109.148438 L 201.425781 136.3125 "/>
<path style="fill:none;stroke-width:1.2;stroke-linecap:butt;stroke-linejoin:miter;stroke:rgb(0%,0%,0%);stroke-opacity:1;stroke-miterlimit:10;" d="M 173.402344 137.972656 L 168.285156 124.902344 "/>
<path style="fill:none;stroke-width:1.2;stroke-linecap:butt;stroke-linejoin:miter;stroke:rgb(100%,0%,0%);stroke-opacity:1;stroke-miterlimit:10;" d="M 168.285156 124.902344 L 163.164062 111.832031 "/>
<path style="fill:none;stroke-width:1.2;stroke-linecap:butt;stroke-linejoin:miter;stroke:rgb(100%,0%,0%);stroke-opacity:1;stroke-miterlimit:10;" d="M 163.164062 111.832031 L 174.011719 102.925781 "/>
<path style="fill:none;stroke-width:1.2;stroke-linecap:butt;stroke-linejoin:miter;stroke:rgb(0%,0%,0%);stroke-opacity:1;stroke-miterlimit:10;" d="M 174.011719 102.925781 L 184.863281 94.019531 "/>
<path style=" stroke:none;fill-rule:nonzero;fill:rgb(100%,100%,100%);fill-opacity:1;" d="M 159.164062 105.332031 L 168.164062 105.332031 L 168.164062 118.332031 L 159.164062 118.332031 Z M 159.164062 105.332031 "/>
<g style="fill:rgb(100%,0%,0%);fill-opacity:1;">
  <use xlink:href="#glyph0-1" x="159.164062" y="115.233398"/>
</g>
<path style="fill:none;stroke-width:1.2;stroke-linecap:butt;stroke-linejoin:miter;stroke:rgb(0%,0%,0%);stroke-opacity:1;stroke-miterlimit:10;" d="M 184.863281 94.019531 L 208.507812 109.148438 "/>
<path style="fill:none;stroke-width:1.2;stroke-linecap:butt;stroke-linejoin:miter;stroke:rgb(0%,0%,0%);stroke-opacity:1;stroke-miterlimit:10;" d="M 183.667969 101.097656 L 202.582031 113.199219 "/>
<path style="fill:none;stroke-width:1.2;stroke-linecap:butt;stroke-linejoin:miter;stroke:rgb(100%,0%,0%);stroke-opacity:1;stroke-miterlimit:10;" d="M 128.21875 123.777344 L 119.3125 112.929688 "/>
<path style="fill:none;stroke-width:1.2;stroke-linecap:butt;stroke-linejoin:miter;stroke:rgb(0%,0%,0%);stroke-opacity:1;stroke-miterlimit:10;" d="M 119.3125 112.929688 L 110.40625 102.082031 "/>
<path style=" stroke:none;fill-rule:nonzero;fill:rgb(100%,100%,100%);fill-opacity:1;" d="M 124.21875 117.277344 L 133.21875 117.277344 L 133.21875 130.277344 L 124.21875 130.277344 Z M 124.21875 117.277344 "/>
<g style="fill:rgb(100%,0%,0%);fill-opacity:1;">
  <use xlink:href="#glyph0-1" x="124.21875" y="127.178711"/>
</g>
</g>
</svg>

<svg xmlns="http://www.w3.org/2000/svg" xmlns:xlink="http://www.w3.org/1999/xlink" width="300pt" height="300pt" viewBox="0 0 300 300"><defs><symbol overflow="visible"><path d="M.547 1.938V-7.75h5.5v9.688zm.625-.61h4.266v-8.47H1.171zm0 0"/></symbol><symbol overflow="visible" id="a"><path d="M4.328-7.28c-.78 0-1.406.296-1.875.89-.46.585-.687 1.382-.687 2.39 0 1.012.226 1.813.687 2.406.47.586 1.094.875 1.875.875.79 0 1.414-.288 1.875-.874.457-.593.688-1.394.688-2.406 0-1.008-.23-1.805-.687-2.39-.46-.594-1.086-.89-1.875-.89zm0-.892c1.125 0 2.024.383 2.703 1.14C7.708-6.28 8.048-5.27 8.048-4c0 1.262-.34 2.273-1.016 3.03C6.353-.22 5.454.157 4.33.157S2.3-.22 1.625-.97c-.668-.75-1-1.757-1-3.03 0-1.27.332-2.28 1-3.03.676-.76 1.578-1.142 2.703-1.142zm0 0"/></symbol><symbol overflow="visible" id="b"><path d="M1.078-8.016h1.47l3.546 6.704v-6.704h1.062V0H5.688L2.124-6.703V0H1.078zm0 0"/></symbol><symbol overflow="visible" id="c"><path d="M1.078-8.016h1.094v3.282H6.11v-3.282h1.077V0H6.11v-3.813H2.17V0H1.078zm0 0"/></symbol></defs><g><path fill="#fff" d="M0 0h300v300H0z"/><path d="M35.25 163.79l8.906 10.847" stroke-width="1.2" stroke="#000" stroke-miterlimit="10" fill="none"/><path d="M44.156 174.637l8.907 10.847M53.063 185.484l13.847-2.29" stroke-width="1.2" stroke="#f00" stroke-miterlimit="10" fill="none"/><path d="M66.91 183.195l13.852-2.29" stroke-width="1.2" stroke="#000" stroke-miterlimit="10" fill="none"/><path d="M49.063 178.984h9v13h-9zm0 0" fill="#fff"/><use xlink:href="#a" x="49.063" y="188.886" fill="#f00"/><path d="M80.762 180.906l9.88-26.277M87.93 180.605l7.906-21.023M98.574 202.602l-17.812-21.696M90.64 154.63l27.7-4.58M118.34 150.05l17.812 21.696M115.016 156.414l14.25 17.356M118.34 150.05l4.937-13.136" stroke-width="1.2" stroke="#000" stroke-miterlimit="10" fill="none"/><path d="M123.277 136.914l4.942-13.137" stroke-width="1.2" stroke="#f00" stroke-miterlimit="10" fill="none"/><path d="M136.152 171.746l-9.882 26.277M136.152 171.746l27.696-4.578M126.27 198.023l-27.696 4.58M122.422 191.965l-22.156 3.664M163.848 167.168l8.906 10.848" stroke-width="1.2" stroke="#000" stroke-miterlimit="10" fill="none"/><path d="M172.754 178.016l8.906 10.847M181.66 188.863l13.852-2.29" stroke-width="1.2" stroke="#00f" stroke-miterlimit="10" fill="none"/><path d="M195.512 186.574l13.847-2.29" stroke-width="1.2" stroke="#000" stroke-miterlimit="10" fill="none"/><path d="M173.66 182.363h17v13h-17zm0 0" fill="#fff"/><g fill="#00f"><use xlink:href="#b" x="173.66" y="192.265"/><use xlink:href="#c" x="181.644" y="192.265"/></g><path d="M209.36 184.285l8.906 10.848" stroke-width="1.2" stroke="#000" stroke-miterlimit="10" fill="none"/><path d="M218.266 195.133l8.906 10.847" stroke-width="1.2" stroke="#00f" stroke-miterlimit="10" fill="none"/><path d="M216.246 182.262l7.125 8.68" stroke-width="1.2" stroke="#000" stroke-miterlimit="10" fill="none"/><path d="M223.37 190.94l7.126 8.677" stroke-width="1.2" stroke="#00f" stroke-miterlimit="10" fill="none"/><path d="M219.238 158.008l-9.88 26.277" stroke-width="1.2" stroke="#000" stroke-miterlimit="10" fill="none"/><path d="M227.172 205.98l13.848-2.29" stroke-width="1.2" stroke="#00f" stroke-miterlimit="10" fill="none"/><path d="M241.02 203.69l13.847-2.288" stroke-width="1.2" stroke="#000" stroke-miterlimit="10" fill="none"/><path d="M223.172 199.48h8v13h-8zm0 0" fill="#fff"/><use xlink:href="#b" x="223.172" y="209.382" fill="#00f"/><path d="M254.867 201.402l4.942-13.14" stroke-width="1.2" stroke="#000" stroke-miterlimit="10" fill="none"/><path d="M259.81 188.262l4.94-13.137" stroke-width="1.2" stroke="#00f" stroke-miterlimit="10" fill="none"/><path d="M249.672 196.45l3.953-10.512" stroke-width="1.2" stroke="#000" stroke-miterlimit="10" fill="none"/><path d="M253.625 185.938l3.953-10.508M264.75 175.125l-8.906-10.848" stroke-width="1.2" stroke="#00f" stroke-miterlimit="10" fill="none"/><path d="M255.844 164.277l-8.906-10.847" stroke-width="1.2" stroke="#000" stroke-miterlimit="10" fill="none"/><path d="M260.75 168.625h8v13h-8zm0 0" fill="#fff"/><use xlink:href="#b" x="260.75" y="178.526" fill="#00f"/><path d="M246.938 153.43l-27.7 4.578M245.242 160.406l-22.156 3.66M219.238 158.008l-17.812-21.696M201.426 136.313l-28.024 1.66M198.234 129.887l-22.418 1.328M208.508 109.148l-7.082 27.165M173.402 137.973l-5.117-13.07" stroke-width="1.2" stroke="#000" stroke-miterlimit="10" fill="none"/><path d="M168.285 124.902l-5.12-13.07M163.164 111.832l10.848-8.906" stroke-width="1.2" stroke="#f00" stroke-miterlimit="10" fill="none"/><path d="M174.012 102.926l10.85-8.906" stroke-width="1.2" stroke="#000" stroke-miterlimit="10" fill="none"/><path d="M159.164 105.332h9v13h-9zm0 0" fill="#fff"/><use xlink:href="#a" x="159.164" y="115.233" fill="#f00"/><path d="M184.863 94.02l23.645 15.128M183.668 101.098l18.914 12.1" stroke-width="1.2" stroke="#000" stroke-miterlimit="10" fill="none"/><path d="M128.22 123.777l-8.907-10.847" stroke-width="1.2" stroke="#f00" stroke-miterlimit="10" fill="none"/><path d="M119.313 112.93l-8.907-10.848" stroke-width="1.2" stroke="#000" stroke-miterlimit="10" fill="none"/><path d="M124.22 117.277h9v13h-9zm0 0" fill="#fff"/><use xlink:href="#a" x="124.219" y="127.179" fill="#f00"/></g></svg>
